src/assets/images/pattern.svg

<svg width="722" height="244" viewBox="0 0 722 244" fill="none" xmlns="http://www.w3.org/2000/svg">
<path opacity="0.7" fill-rule="evenodd" clip-rule="evenodd" d="M218.691 222.15C212.062 226.463 205.382 230.118 198.755 233.07C172.576 244.731 147.566 245.309 129.528 232.832C125.408 229.982 121.8 226.554 118.709 222.621C137.826 209.818 156.399 191.651 172.05 169.181C209.688 115.144 218.024 54.0225 194.764 21.8811C201.409 17.5544 208.105 13.8894 214.748 10.9303C240.927 -0.73091 265.937 -1.30897 283.975 11.1678C288.085 14.0104 291.684 17.4278 294.77 21.3477C275.637 34.1528 257.046 52.3309 241.382 74.819C203.732 128.873 195.403 190.017 218.691 222.15ZM193.561 20.2807C226.8 -1.3994 261.468 -6.8319 285.118 9.52681C289.452 12.5243 293.227 16.1229 296.448 20.2391C329.657 -1.40633 364.284 -6.82145 387.912 9.52681C392.258 12.5344 396.043 16.1471 399.27 20.2807C432.51 -1.3994 467.177 -6.8319 490.828 9.52681C495.161 12.5243 498.936 16.1229 502.158 20.2391C535.367 -1.40634 569.994 -6.82145 593.621 9.52681C597.968 12.5344 601.752 16.147 604.98 20.2805C638.219 -1.39942 672.887 -6.83187 696.537 9.52681C712.784 20.7645 721.178 40.4502 722 64.1898H719.997C719.178 40.8978 710.94 21.9208 695.394 11.1678C677.356 -1.30897 652.346 -0.73091 626.167 10.9303C619.524 13.8894 612.828 17.5543 606.183 21.8809C629.443 54.0223 621.107 115.144 583.469 169.181C567.818 191.651 549.244 209.818 530.128 222.621C533.219 226.554 536.826 229.982 540.947 232.832C558.985 245.309 583.995 244.731 610.174 233.07C621.609 227.976 633.2 220.791 644.419 211.74V214.299C607.465 243.586 566.575 252.991 539.803 234.473C535.459 231.468 531.676 227.859 528.45 223.731C495.227 245.401 460.579 250.829 436.94 234.473C432.604 231.473 428.828 227.871 425.605 223.75C392.38 245.404 357.734 250.824 334.094 234.473C329.75 231.468 325.967 227.859 322.74 223.73C289.517 245.401 254.869 250.829 231.231 234.473C226.895 231.473 223.118 227.871 219.896 223.75C186.67 245.404 152.024 250.824 128.385 234.473C124.04 231.468 120.258 227.859 117.031 223.73C83.8078 245.401 49.1597 250.829 25.5212 234.473C-12.1384 208.416 -7.59328 136.936 35.673 74.819C78.9392 12.7018 144.542 -16.5305 182.202 9.52681C186.549 12.5344 190.333 16.1471 193.561 20.2807ZM115.827 222.13C109.19 226.452 102.503 230.113 95.8677 233.069C69.6975 244.731 44.6961 245.309 26.6643 232.832C8.63248 220.356 0.435682 196.807 2.2488 168.293C4.05914 139.822 15.8577 106.767 37.3176 75.957C58.7775 45.147 85.7252 22.574 111.856 10.9306C138.026 -0.730646 163.027 -1.3086 181.059 11.1679C185.182 14.0207 188.791 17.4522 191.883 21.3896C172.766 34.1923 154.192 52.3553 138.54 74.819C100.885 128.862 92.5489 189.992 115.827 222.13ZM117.502 221.025C107.916 207.833 103.76 189.427 105.104 168.293C106.915 139.822 118.718 106.767 140.185 75.9567C155.738 53.6352 174.172 35.6371 193.089 22.9864C202.666 36.1777 206.818 54.5793 205.474 75.7073C203.664 104.178 191.866 137.233 170.406 168.043C154.853 190.371 136.419 208.374 117.502 221.025ZM220.367 221.045C210.774 207.852 206.614 189.438 207.958 168.293C209.769 139.822 221.567 106.767 243.027 75.957C258.592 53.61 277.045 35.5964 295.978 22.9435C303.792 33.6804 308.005 47.8768 308.578 64.1898H310.581C310.007 47.5897 305.729 32.9718 297.654 21.8385C304.275 17.5304 310.946 13.8799 317.565 10.9306C343.735 -0.730646 368.737 -1.3086 386.768 11.1679C390.891 14.0207 394.5 17.4522 397.593 21.3896C378.475 34.1923 359.901 52.3553 344.249 74.819C306.594 128.862 298.258 189.992 321.536 222.13C314.899 226.452 308.212 230.113 301.577 233.069C275.407 244.731 250.406 245.309 232.374 232.832C228.262 229.987 224.661 226.566 221.574 222.641C225.411 220.074 229.226 217.29 233 214.299V211.74C228.831 215.103 224.611 218.209 220.367 221.045ZM514.287 64.1898C513.714 47.8768 509.501 33.6804 501.688 22.9435C482.754 35.5963 464.302 53.61 448.737 75.957C427.277 106.767 415.478 139.822 413.668 168.293C412.323 189.438 416.483 207.852 426.076 221.045C430.321 218.209 434.541 215.103 438.71 211.74V214.299C434.936 217.29 431.12 220.074 427.283 222.641C430.37 226.566 433.971 229.987 438.083 232.832C456.115 245.309 481.116 244.731 507.287 233.069C513.921 230.113 520.609 226.452 527.246 222.13C503.968 189.992 512.304 128.862 549.959 74.819C565.61 52.3553 584.185 34.1922 603.302 21.3895C600.209 17.4521 596.601 14.0206 592.478 11.1679C574.446 -1.3086 549.445 -0.730646 523.274 10.9306C516.656 13.8799 509.984 17.5304 503.363 21.8385C511.439 32.9718 515.716 47.5897 516.291 64.1898H514.287ZM489.685 11.1678C493.794 14.0104 497.393 17.4278 500.48 21.3477C481.347 34.1527 462.755 52.3309 447.092 74.819C409.442 128.873 401.113 190.017 424.401 222.15C417.771 226.463 411.092 230.118 404.465 233.07C378.286 244.731 353.276 245.309 335.238 232.832C331.117 229.982 327.51 226.554 324.418 222.621C343.535 209.818 362.109 191.651 377.76 169.181C415.398 115.144 423.733 54.0225 400.473 21.8811C407.118 17.5544 413.814 13.8894 420.457 10.9303C446.636 -0.73091 471.646 -1.30897 489.685 11.1678ZM581.825 168.043C566.272 190.371 547.838 208.374 528.921 221.025C519.335 207.833 515.179 189.427 516.523 168.293C518.334 139.822 530.136 106.767 551.604 75.9567C567.156 53.6351 585.591 35.637 604.508 22.9863C614.085 36.1776 618.237 54.5792 616.893 75.7073C615.083 104.178 603.284 137.233 581.825 168.043ZM323.212 221.025C342.128 208.374 360.563 190.371 376.115 168.043C397.575 137.233 409.374 104.178 411.184 75.7073C412.527 54.5793 408.375 36.1777 398.798 22.9864C379.881 35.6371 361.447 53.6352 345.894 75.9567C324.427 106.767 312.625 139.822 310.814 168.293C309.469 189.427 313.626 207.833 323.212 221.025Z" fill="white"/>
</svg>

<svg width="722" height="244" viewBox="0 0 722 244" fill="none" xmlns="http://www.w3.org/2000/svg"><path opacity="0.7" fill-rule="evenodd" clip-rule="evenodd" d="M218.69 222.15c-6.628 4.313-13.308 7.968-19.935 10.92-26.18 11.66-51.19 12.24-69.227-.238-4.12-2.85-7.728-6.278-10.82-10.21 19.118-12.804 37.69-30.97 53.342-53.44 37.638-54.038 45.974-115.16 22.714-147.3 6.645-4.328 13.34-7.993 19.984-10.952 26.18-11.66 51.19-12.24 69.227.238 4.11 2.842 7.71 6.26 10.795 10.18-19.133 12.805-37.724 30.983-53.388 53.47-37.65 54.055-45.98 115.2-22.69 147.332zM193.56 20.28C226.8-1.4 261.47-6.831 285.12 9.528c4.334 2.997 8.11 6.596 11.33 10.712 33.21-21.646 67.836-27.061 91.464-10.713 4.346 3.007 8.13 6.62 11.358 10.754C432.51-1.4 467.177-6.831 490.828 9.528c4.333 2.997 8.108 6.596 11.33 10.712 33.21-21.646 67.836-27.061 91.463-10.713 4.348 3.007 8.132 6.62 11.36 10.753C638.22-1.4 672.887-6.831 696.537 9.528 712.784 20.764 721.177 40.45 722 64.19h-2.003c-.82-23.292-9.057-42.27-24.603-53.022-18.038-12.477-43.048-11.899-69.227-.238-6.643 2.96-13.34 6.624-19.984 10.95 23.26 32.142 14.924 93.264-22.714 147.3-15.652 22.47-34.226 40.638-53.342 53.44 3.09 3.934 6.698 7.362 10.82 10.212 18.037 12.477 43.047 11.9 69.226.238 11.435-5.094 23.026-12.28 34.245-21.33v2.56c-36.955 29.286-77.845 38.69-104.617 20.173-4.344-3.005-8.127-6.614-11.353-10.742-33.223 21.67-67.87 27.1-91.51 10.743-4.336-3-8.112-6.602-11.335-10.723-33.225 21.654-67.87 27.074-91.51 10.723-4.345-3.005-8.128-6.614-11.355-10.743-33.223 21.67-67.87 27.1-91.51 10.743-4.335-3-8.112-6.602-11.334-10.723-33.226 21.654-67.872 27.074-91.51 10.723-4.346-3.005-8.128-6.614-11.355-10.743-33.222 21.67-67.87 27.1-91.509 10.743-37.658-26.057-33.113-97.537 10.153-159.654C78.94 12.7 144.543-16.53 182.203 9.526c4.346 3.007 8.13 6.62 11.358 10.754zm-77.733 201.85c-6.637 4.322-13.324 7.983-19.96 10.94-26.17 11.66-51.17 12.24-69.203-.238C8.632 220.356.436 196.807 2.25 168.292c1.81-28.47 13.608-61.525 35.068-92.335 21.46-30.81 48.407-53.383 74.538-65.026 26.17-11.66 51.17-12.239 69.203.238 4.122 2.853 7.73 6.284 10.823 10.222-19.117 12.802-37.69 30.965-53.343 53.43-37.655 54.042-45.991 115.172-22.713 147.31zm1.675-1.105c-9.586-13.192-13.742-31.598-12.398-52.732 1.81-28.47 13.614-61.526 35.08-92.336 15.554-22.322 33.988-40.32 52.905-52.97 9.576 13.19 13.728 31.592 12.384 52.72-1.81 28.47-13.608 61.526-35.068 92.336-15.553 22.328-33.987 40.33-52.904 52.982zm102.865.02c-9.593-13.193-13.753-31.607-12.41-52.752 1.812-28.47 13.61-61.526 35.07-92.336 15.565-22.347 34.018-40.36 52.95-53.014 7.815 10.737 12.028 24.934 12.6 41.247h2.004c-.573-16.6-4.85-31.218-12.926-42.352 6.62-4.308 13.292-7.958 19.91-10.907 26.17-11.66 51.173-12.239 69.204.238 4.123 2.853 7.732 6.284 10.825 10.222-19.118 12.802-37.692 30.965-53.344 53.43-37.656 54.042-45.992 115.172-22.714 147.31-6.637 4.322-13.324 7.983-19.96 10.94-26.17 11.66-51.17 12.24-69.202-.238-4.112-2.845-7.713-6.266-10.8-10.19A175.808 175.808 0 0 0 233 214.298v-2.56c-4.17 3.363-8.39 6.47-12.633 9.305zM514.287 64.19c-.573-16.313-4.786-30.51-12.6-41.247-18.933 12.653-37.385 30.667-52.95 53.014-21.46 30.81-33.26 63.865-35.07 92.336-1.344 21.145 2.816 39.56 12.41 52.752a174.893 174.893 0 0 0 12.633-9.305v2.56a175.816 175.816 0 0 1-11.427 8.34c3.087 3.926 6.688 7.347 10.8 10.192 18.032 12.477 43.033 11.9 69.204.237 6.634-2.957 13.322-6.618 19.96-10.94-23.28-32.138-14.943-93.268 22.712-147.31 15.65-22.465 34.225-40.628 53.342-53.43-3.093-3.938-6.7-7.37-10.824-10.222-18.032-12.477-43.033-11.899-69.204-.237-6.618 2.95-13.29 6.6-19.91 10.908 8.075 11.134 12.352 25.752 12.927 42.352h-2.003zm-24.602-53.022c4.11 2.842 7.708 6.26 10.795 10.18-19.133 12.805-37.725 30.983-53.388 53.47-37.65 54.055-45.98 115.2-22.69 147.332-6.63 4.313-13.31 7.968-19.937 10.92-26.18 11.66-51.19 12.24-69.227-.238-4.12-2.85-7.728-6.278-10.82-10.21 19.117-12.804 37.69-30.97 53.342-53.44 37.638-54.038 45.973-115.16 22.713-147.3 6.645-4.328 13.34-7.993 19.984-10.952 26.18-11.66 51.19-12.24 69.228.238zm92.14 156.875c-15.553 22.328-33.987 40.33-52.904 52.982-9.585-13.192-13.74-31.598-12.397-52.732 1.81-28.47 13.613-61.526 35.08-92.336 15.553-22.322 33.988-40.32 52.905-52.97 9.577 13.19 13.73 31.592 12.385 52.72-1.81 28.47-13.61 61.526-35.068 92.336zm-258.613 52.982c18.916-12.65 37.35-30.654 52.903-52.982 21.46-30.81 33.26-63.865 35.07-92.336 1.342-21.128-2.81-39.53-12.387-52.72-18.917 12.65-37.35 30.648-52.904 52.97-21.467 30.81-33.27 63.865-35.08 92.336-1.345 21.134 2.812 39.54 12.398 52.732z" fill="white"/></svg>
